public/static/img/bank/card_default.svg

<svg width="34" height="34" viewBox="0 0 34 34" fill="none" xmlns="http://www.w3.org/2000/svg">
<path fill-rule="evenodd" clip-rule="evenodd" d="M0 17C0 7.61116 7.61116 0 17 0C26.3888 0 34 7.61116 34 17C34 26.3888 26.3888 34 17 34C7.61116 34 0 26.3888 0 17Z" fill="white"/>
<path d="M26.6293 13.0404V11.3926C26.6293 10.5848 25.9762 9.93164 25.1684 9.93164H8.83594C8.02813 9.93164 7.375 10.5848 7.375 11.3926V13.0404C7.375 13.1822 7.49102 13.2982 7.63281 13.2982H26.3715C26.5133 13.2982 26.6293 13.1822 26.6293 13.0404ZM26.3715 14.6646H7.63281C7.49102 14.6646 7.375 14.7807 7.375 14.9225V23.3078C7.375 24.1156 8.02813 24.7687 8.83594 24.7687H25.1684C25.9762 24.7687 26.6293 24.1156 26.6293 23.3078V14.9225C26.6293 14.7807 26.5133 14.6646 26.3715 14.6646ZM16.9979 20.0508L16.6047 22.2809C16.5832 22.4033 16.4758 22.4936 16.3512 22.4936H15.5004C15.3393 22.4936 15.2189 22.3496 15.2469 22.1906L15.64 19.9605C15.6615 19.8381 15.7689 19.7479 15.8936 19.7479H16.7443C16.9055 19.75 17.0258 19.8939 16.9979 20.0508ZM19.75 20.0508L19.3568 22.2809C19.3354 22.4033 19.2279 22.4936 19.1033 22.4936H18.2525C18.0914 22.4936 17.9711 22.3496 17.999 22.1906L18.3922 19.9605C18.4137 19.8381 18.5211 19.7479 18.6457 19.7479H19.4965C19.6576 19.75 19.7779 19.8939 19.75 20.0508ZM23.875 20.0508L23.4818 22.2809C23.4604 22.4033 23.3529 22.4936 23.2283 22.4936H21.0047C20.8436 22.4936 20.7232 22.3496 20.7512 22.1906L21.1443 19.9605C21.1658 19.8381 21.2732 19.7479 21.3979 19.7479H23.6215C23.7805 19.75 23.9029 19.8939 23.875 20.0508Z" fill="#171717"/>
</svg>

<svg width="34" height="34" fill="none" xmlns="http://www.w3.org/2000/svg"><path fill-rule="evenodd" clip-rule="evenodd" d="M0 17C0 7.611 7.611 0 17 0s17 7.611 17 17-7.611 17-17 17S0 26.389 0 17Z" fill="#fff"/><path d="M26.63 13.04v-1.647a1.46 1.46 0 0 0-1.462-1.461H8.836a1.46 1.46 0 0 0-1.461 1.46v1.648c0 .142.116.258.258.258h18.739a.259.259 0 0 0 .257-.258Zm-.258 1.625H7.632a.259.259 0 0 0-.257.258v8.385c0 .808.653 1.46 1.46 1.46h16.333a1.46 1.46 0 0 0 1.461-1.46v-8.386a.259.259 0 0 0-.258-.257Zm-9.374 5.386-.393 2.23a.258.258 0 0 1-.254.213h-.85a.257.257 0 0 1-.254-.303l.393-2.23a.258.258 0 0 1 .254-.213h.85a.259.259 0 0 1 .254.303Zm2.752 0-.393 2.23a.258.258 0 0 1-.254.213h-.85a.257.257 0 0 1-.254-.303l.393-2.23a.258.258 0 0 1 .254-.213h.85a.259.259 0 0 1 .254.303Zm4.125 0-.393 2.23a.258.258 0 0 1-.254.213h-2.223a.257.257 0 0 1-.254-.303l.393-2.23a.258.258 0 0 1 .254-.213h2.224a.26.26 0 0 1 .253.303Z" fill="#171717"/></svg>
